X: 16159
T: Green Leaves Of Summer, The
R: waltz
M: 3/4
K: Eminor
B,|E4 FE|^D (B,2 B,2) B,|E4 FG|F D4 D|G4 FG|A E4 A|
^A4 FA|B4 Bc|d4 cB|A E3 AB|c4 BA|G D3 GA|B4 AG|
F A4 F|E G4 E|(F3 F2) B,|E4 FE|^D B,4 B,|E4 FG|F D4 D|
G4 FG|A E4 A|^A4 FA|B4 Bc|d4 cB|A E3 AB|c4 BA|
G4 GA|B4 AG|F A4 F|E3 F2 ^D|E6||

